content/blogs/regnskap/avrunding-regnskap/avrundingsdifferanser-prosess.svg

<svg xmlns="http://www.w3.org/2000/svg" width="600" height="500" viewBox="0 0 600 500"><path fill="#f8f9fa" d="M0 0h600v500H0z"/><text x="300" y="30" fill="#2c3e50" font-family="Arial, sans-serif" font-size="20" font-weight="bold" text-anchor="middle">
    Prosess for Håndtering av Avrundingsdifferanser
  </text><rect width="120" height="80" x="50" y="60" fill="#3498db" opacity=".8" rx="10"/><text x="110" y="85" fill="#fff" font-family="Arial, sans-serif" font-size="12" font-weight="bold" text-anchor="middle">
    STEG 1
  </text><text x="110" y="105" fill="#fff" font-family="Arial, sans-serif" font-size="11" text-anchor="middle">
    Identifiser
  </text><text x="110" y="120" fill="#fff" font-family="Arial, sans-serif" font-size="11" text-anchor="middle">
    Differanser
  </text><path fill="none" stroke="#2c3e50" stroke-width="2" d="M170 100h30m-10-10 10 10-10 10"/><rect width="120" height="80" x="210" y="60" fill="#e74c3c" opacity=".8" rx="10"/><text x="270" y="85" fill="#fff" font-family="Arial, sans-serif" font-size="12" font-weight="bold" text-anchor="middle">
    STEG 2
  </text><text x="270" y="105" fill="#fff" font-family="Arial, sans-serif" font-size="11" text-anchor="middle">
    Vurder
  </text><text x="270" y="120" fill="#fff" font-family="Arial, sans-serif" font-size="11" text-anchor="middle">
    Vesentlighet
  </text><path fill="none" stroke="#2c3e50" stroke-width="2" d="M330 100h30m-10-10 10 10-10 10"/><rect width="120" height="80" x="370" y="60" fill="#27ae60" opacity=".8" rx="10"/><text x="430" y="85" fill="#fff" font-family="Arial, sans-serif" font-size="12" font-weight="bold" text-anchor="middle">
    STEG 3
  </text><text x="430" y="105" fill="#fff" font-family="Arial, sans-serif" font-size="11" text-anchor="middle">
    Juster og
  </text><text x="430" y="120" fill="#fff" font-family="Arial, sans-serif" font-size="11" text-anchor="middle">
    Dokumenter
  </text><path fill="#f39c12" stroke="#2c3e50" stroke-width="2" d="m270 180 50 20-50 20-50-20Z" opacity=".8"/><text x="270" y="195" fill="#fff" font-family="Arial, sans-serif" font-size="10" font-weight="bold" text-anchor="middle">
    Differanse
  </text><text x="270" y="208" fill="#fff" font-family="Arial, sans-serif" font-size="10" font-weight="bold" text-anchor="middle">
    &gt; 0,5%?
  </text><path fill="none" stroke="#2c3e50" stroke-width="2" d="M270 140v40"/><rect width="150" height="100" x="50" y="260" fill="#2ecc71" opacity=".8" rx="10"/><text x="125" y="285" fill="#fff" font-family="Arial, sans-serif" font-size="12" font-weight="bold" text-anchor="middle">
    SMÅ DIFFERANSER
  </text><text x="125" y="305" fill="#fff" font-family="Arial, sans-serif" font-size="11" text-anchor="middle">
    (&lt; 0,5% av omsetning)
  </text><text x="60" y="325" fill="#fff" font-family="Arial, sans-serif" font-size="10">
    • Juster mot egenkapital
  </text><text x="60" y="340" fill="#fff" font-family="Arial, sans-serif" font-size="10">
    • Enkel dokumentasjon
  </text><text x="60" y="355" fill="#fff" font-family="Arial, sans-serif" font-size="10">
    • Akseptabel for revisjon
  </text><path fill="none" stroke="#27ae60" stroke-width="2" d="M220 200h-40v40h-55v20"/><text x="160" y="235" fill="#27ae60" font-family="Arial, sans-serif" font-size="10" font-weight="bold">
    NEI
  </text><rect width="150" height="100" x="350" y="260" fill="#e74c3c" opacity=".8" rx="10"/><text x="425" y="285" fill="#fff" font-family="Arial, sans-serif" font-size="12" font-weight="bold" text-anchor="middle">
    STORE DIFFERANSER
  </text><text x="425" y="305" fill="#fff" font-family="Arial, sans-serif" font-size="11" text-anchor="middle">
    (&gt; 0,5% av omsetning)
  </text><text x="360" y="325" fill="#fff" font-family="Arial, sans-serif" font-size="10">
    • Nærmere analyse
  </text><text x="360" y="340" fill="#fff" font-family="Arial, sans-serif" font-size="10">
    • Detaljert dokumentasjon
  </text><text x="360" y="355" fill="#fff" font-family="Arial, sans-serif" font-size="10">
    • Kan kreve justering
  </text><path fill="none" stroke="#e74c3c" stroke-width="2" d="M320 200h40v40h65v20"/><text x="340" y="235" fill="#e74c3c" font-family="Arial, sans-serif" font-size="10" font-weight="bold">
    JA
  </text><rect width="200" height="60" x="200" y="390" fill="#34495e" opacity=".8" rx="10"/><text x="300" y="415" fill="#fff" font-family="Arial, sans-serif" font-size="12" font-weight="bold" text-anchor="middle">
    KVALITETSKONTROLL
  </text><text x="210" y="435" fill="#fff" font-family="Arial, sans-serif" font-size="10">
    • Balanse må stemme etter justering
  </text><text x="210" y="445" fill="#fff" font-family="Arial, sans-serif" font-size="10">
    • Dokumenter alle endringer
  </text><path fill="none" stroke="#2c3e50" stroke-width="2" d="M125 360v20h125v10M425 360v20h-75v10"/><rect width="70" height="200" x="520" y="150" fill="#ecf0f1" stroke="#bdc3c7" rx="5"/><text x="555" y="170" fill="#2c3e50" font-family="Arial, sans-serif" font-size="10" font-weight="bold" text-anchor="middle">
    VIKTIG!
  </text><text x="525" y="190" fill="#2c3e50" font-family="Arial, sans-serif" font-size="8">
    Alle justeringer
  </text><text x="525" y="205" fill="#2c3e50" font-family="Arial, sans-serif" font-size="8">
    må være:
  </text><text x="525" y="225" fill="#2c3e50" font-family="Arial, sans-serif" font-size="8">
    • Dokumentert
  </text><text x="525" y="240" fill="#2c3e50" font-family="Arial, sans-serif" font-size="8">
    • Konsistent
  </text><text x="525" y="255" fill="#2c3e50" font-family="Arial, sans-serif" font-size="8">
    • Sporbar
  </text><text x="525" y="270" fill="#2c3e50" font-family="Arial, sans-serif" font-size="8">
    • Godkjent
  </text><text x="525" y="285" fill="#2c3e50" font-family="Arial, sans-serif" font-size="8">
    • Revidert
  </text></svg>

<svg width="600" height="500" viewBox="0 0 600 500" xmlns="http://www.w3.org/2000/svg">

  <rect width="600" height="500" fill="#f8f9fa"/>
  

  <text x="300" y="30" text-anchor="middle" font-family="Arial, sans-serif" font-size="20" font-weight="bold" fill="#2c3e50">
    Prosess for Håndtering av Avrundingsdifferanser
  </text>
  

  <rect x="50" y="60" width="120" height="80" fill="#3498db" opacity="0.8" rx="10"/>
  <text x="110" y="85" text-anchor="middle" font-family="Arial, sans-serif" font-size="12" font-weight="bold" fill="white">
    STEG 1
  </text>
  <text x="110" y="105" text-anchor="middle" font-family="Arial, sans-serif" font-size="11" fill="white">
    Identifiser
  </text>
  <text x="110" y="120" text-anchor="middle" font-family="Arial, sans-serif" font-size="11" fill="white">
    Differanser
  </text>
  

  <path d="M 170 100 L 200 100 M 190 90 L 200 100 L 190 110" stroke="#2c3e50" stroke-width="2" fill="none"/>
  

  <rect x="210" y="60" width="120" height="80" fill="#e74c3c" opacity="0.8" rx="10"/>
  <text x="270" y="85" text-anchor="middle" font-family="Arial, sans-serif" font-size="12" font-weight="bold" fill="white">
    STEG 2
  </text>
  <text x="270" y="105" text-anchor="middle" font-family="Arial, sans-serif" font-size="11" fill="white">
    Vurder
  </text>
  <text x="270" y="120" text-anchor="middle" font-family="Arial, sans-serif" font-size="11" fill="white">
    Vesentlighet
  </text>
  

  <path d="M 330 100 L 360 100 M 350 90 L 360 100 L 350 110" stroke="#2c3e50" stroke-width="2" fill="none"/>
  

  <rect x="370" y="60" width="120" height="80" fill="#27ae60" opacity="0.8" rx="10"/>
  <text x="430" y="85" text-anchor="middle" font-family="Arial, sans-serif" font-size="12" font-weight="bold" fill="white">
    STEG 3
  </text>
  <text x="430" y="105" text-anchor="middle" font-family="Arial, sans-serif" font-size="11" fill="white">
    Juster og
  </text>
  <text x="430" y="120" text-anchor="middle" font-family="Arial, sans-serif" font-size="11" fill="white">
    Dokumenter
  </text>
  

  <path d="M 270 180 L 320 200 L 270 220 L 220 200 Z" fill="#f39c12" opacity="0.8" stroke="#2c3e50" stroke-width="2"/>
  <text x="270" y="195" text-anchor="middle" font-family="Arial, sans-serif" font-size="10" font-weight="bold" fill="white">
    Differanse
  </text>
  <text x="270" y="208" text-anchor="middle" font-family="Arial, sans-serif" font-size="10" font-weight="bold" fill="white">
    &gt; 0,5%?
  </text>
  

  <path d="M 270 140 L 270 180" stroke="#2c3e50" stroke-width="2" fill="none"/>
  

  <rect x="50" y="260" width="150" height="100" fill="#2ecc71" opacity="0.8" rx="10"/>
  <text x="125" y="285" text-anchor="middle" font-family="Arial, sans-serif" font-size="12" font-weight="bold" fill="white">
    SMÅ DIFFERANSER
  </text>
  <text x="125" y="305" text-anchor="middle" font-family="Arial, sans-serif" font-size="11" fill="white">
    (&lt; 0,5% av omsetning)
  </text>
  <text x="60" y="325" font-family="Arial, sans-serif" font-size="10" fill="white">
    • Juster mot egenkapital
  </text>
  <text x="60" y="340" font-family="Arial, sans-serif" font-size="10" fill="white">
    • Enkel dokumentasjon
  </text>
  <text x="60" y="355" font-family="Arial, sans-serif" font-size="10" fill="white">
    • Akseptabel for revisjon
  </text>
  

  <path d="M 220 200 L 180 200 L 180 240 L 125 240 L 125 260" stroke="#27ae60" stroke-width="2" fill="none"/>
  <text x="160" y="235" font-family="Arial, sans-serif" font-size="10" fill="#27ae60" font-weight="bold">
    NEI
  </text>
  

  <rect x="350" y="260" width="150" height="100" fill="#e74c3c" opacity="0.8" rx="10"/>
  <text x="425" y="285" text-anchor="middle" font-family="Arial, sans-serif" font-size="12" font-weight="bold" fill="white">
    STORE DIFFERANSER
  </text>
  <text x="425" y="305" text-anchor="middle" font-family="Arial, sans-serif" font-size="11" fill="white">
    (&gt; 0,5% av omsetning)
  </text>
  <text x="360" y="325" font-family="Arial, sans-serif" font-size="10" fill="white">
    • Nærmere analyse
  </text>
  <text x="360" y="340" font-family="Arial, sans-serif" font-size="10" fill="white">
    • Detaljert dokumentasjon
  </text>
  <text x="360" y="355" font-family="Arial, sans-serif" font-size="10" fill="white">
    • Kan kreve justering
  </text>
  

  <path d="M 320 200 L 360 200 L 360 240 L 425 240 L 425 260" stroke="#e74c3c" stroke-width="2" fill="none"/>
  <text x="340" y="235" font-family="Arial, sans-serif" font-size="10" fill="#e74c3c" font-weight="bold">
    JA
  </text>
  

  <rect x="200" y="390" width="200" height="60" fill="#34495e" opacity="0.8" rx="10"/>
  <text x="300" y="415" text-anchor="middle" font-family="Arial, sans-serif" font-size="12" font-weight="bold" fill="white">
    KVALITETSKONTROLL
  </text>
  <text x="210" y="435" font-family="Arial, sans-serif" font-size="10" fill="white">
    • Balanse må stemme etter justering
  </text>
  <text x="210" y="445" font-family="Arial, sans-serif" font-size="10" fill="white">
    • Dokumenter alle endringer
  </text>
  

  <path d="M 125 360 L 125 380 L 250 380 L 250 390" stroke="#2c3e50" stroke-width="2" fill="none"/>
  <path d="M 425 360 L 425 380 L 350 380 L 350 390" stroke="#2c3e50" stroke-width="2" fill="none"/>
  

  <rect x="520" y="150" width="70" height="200" fill="#ecf0f1" stroke="#bdc3c7" stroke-width="1" rx="5"/>
  <text x="555" y="170" text-anchor="middle" font-family="Arial, sans-serif" font-size="10" font-weight="bold" fill="#2c3e50">
    VIKTIG!
  </text>
  <text x="525" y="190" font-family="Arial, sans-serif" font-size="8" fill="#2c3e50">
    Alle justeringer
  </text>
  <text x="525" y="205" font-family="Arial, sans-serif" font-size="8" fill="#2c3e50">
    må være:
  </text>
  <text x="525" y="225" font-family="Arial, sans-serif" font-size="8" fill="#2c3e50">
    • Dokumentert
  </text>
  <text x="525" y="240" font-family="Arial, sans-serif" font-size="8" fill="#2c3e50">
    • Konsistent
  </text>
  <text x="525" y="255" font-family="Arial, sans-serif" font-size="8" fill="#2c3e50">
    • Sporbar
  </text>
  <text x="525" y="270" font-family="Arial, sans-serif" font-size="8" fill="#2c3e50">
    • Godkjent
  </text>
  <text x="525" y="285" font-family="Arial, sans-serif" font-size="8" fill="#2c3e50">
    • Revidert
  </text>
</svg>
